X:1
T:There’s No Other Name like Jesus
T:Franklin Edson Belden, 1886
T:There’s No Other Name like Jesus
T:Public Domain
T:Public Domain
C:Franklin Edson Belden, 1886
Z:Public Domain
%%score ( 1 2 ) ( 3 4 )
L:1/8
M:4/4
K:F
V:1 treble 
V:2 treble 
V:3 bass 
V:4 bass 
V:1
 C[CF] | [FA]2 [F^G]2 [FA]2 [Fc]2 | [FA]4 [CF]2 [CE][CF] | [CG]2 [C^F]2 [CG]2 [CB]2 | [CA]6 C[CF] | %5
w: 1.~There’s no|ther name like Je-|sus, ’Tis the dear-|est name we know,|’Tis the an-|
w: 2.~There’s no|ther name like Je-|sus, When the heart|with grief is sad,|There’s no o-|
w: 3.~’Tis the|that I shall see|Him When in glo-|ry He ap- pears,|’Tis the hope|
w: 4.~If He|that I should la-|bor In His vine-|yard day by day,|Then ’tis well|
w: 5.~If he|that death’s cold fin-|ger Touch my fee-|ble, mor- tal clay,|Then ’tis well|
 [FA]2 [F^G]2 [FA]2 [Fc]2 | [FA]4 [CF]2 [CE][CF] | [CG]2 [C^F]2 [CG]2 [CA]2 | [CF]6 || %9
w: joy in Heav- en,|’Tis the Chris- tian’s|joy be- low. *||
w: name like Je- sus|When the heart is|free and glad. Sweet|name,|
w: hear His wel- come|That my faint- ing|spir- it cheers. *||
w: on- ly Je- sus|Bless- es all I|do or say. *||
w: on- ly Je- sus|Is my dy- ing|trust and stay. *||
"^Refrain" [Fc]2 | [FA]6 [CA]2 | [CF]6 [CE][CF] | [CG]2 [C^F]2 [EG]2 [Ed]2 | [Fc]4 [FA]2 [Fc]2 | %14
w: |||||
w: dear|name, There’s|no o- ther|name like Je- sus,|Sweet name, dear|
w: |||||
w: |||||
w: |||||
 [FA]6 [CA]2 | [CF]6 [CE][CF] | [CG]2 [C^F]2 [CG]2 [CA]2 | [CG]4 [CF]2 |] %18
w: ||||
w: name, There’s|no o- ther|name like Je- sus.||
w: ||||
w: ||||
w: ||||
V:2
 C x | x8 | x8 | x8 | x6 C x | x8 | x8 | x8 | x6 || x2 | x8 | x8 | x8 | x8 | x8 | x8 | x8 | x6 |] %18
w: o-||||gel’s||||||||||||||
w: o-||||ther||||||||||||||
w: hope||||to||||||||||||||
w: wills||||if||||||||||||||
w: wills||||if||||||||||||||
V:3
 [F,A,][F,A,] | [F,C]2 [F,=B,]2 [F,C]2 [F,A,]2 | [F,C]4 [F,A,]2 [C,G,][C,A,] | %3
w: ~ ~|~ ~ ~ ~|~ ~ ~ ~|
 [C,B,]2 [C,A,]2 [C,B,]2 [E,G,]2 | F,6 [F,A,][F,A,] | [F,C]2 [F,=B,]2 [F,C]2 [F,A,]2 | %6
w: ~ ~ ~ ~|~ ~ ~|~ ~ ~ ~|
 [F,C]4 [F,A,]2 [C,G,][C,A,] | [C,B,]2 [C,A,]2 [C,B,]2 [C,C]2 | [F,,A,]6 || z2 | %10
w: ~ ~ ~ ~|~ ~ ~ ~|Sweet||
 z2 [F,C]2 [F,C]2 z2 | z2 [F,A,]2 [F,A,]2 [C,G,][C,A,] | [C,B,]2 [C,A,]2 [C,B,]2 [C,B,]2 | %13
w: name dear|name ~ ~ ~|~ ~ ~ ~|
 [F,A,]4 [F,C]2 z2 | z2 [F,C]2 [F,C]2 z2 | z2 [F,A,]2 [F,A,]2 [C,G,][C,A,] | %16
w: ~ Sweet|name dear|name * * *|
 [C,B,]2 [C,A,]2 [C,B,]2 [C,C]2 | [C,B,]4 [F,,A,]2 |] %18
w: ||
V:4
 x2 | x8 | x8 | x8 | F,6 x2 | x8 | x8 | x8 | x6 || x2 | x8 | x8 | x8 | x8 | x8 | x8 | x8 | x6 |] %18
w: ||||~||||||||||||||

